src/pos-icons/format-quote-open-outline.svg

<svg height="24" viewBox="0 0 24 24" width="24" xmlns="http://www.w3.org/2000/svg"><path d="m11 18v-8h-1.88l2-4h-5.74l-2.38 4.76v7.24m6-2h-4v-4.76l1.62-3.24h1.26l-2 4h3.12m12 6v-8h-1.88l2-4h-5.74l-2.38 4.76v7.24m6-2h-4v-4.76l1.62-3.24h1.26l-2 4h3.12z"/></svg>

<?xml version="1.0" encoding="UTF-8"?><!DOCTYPE svg PUBLIC "-//W3C//DTD SVG 1.1//EN" "http://www.w3.org/Graphics/SVG/1.1/DTD/svg11.dtd"><svg xmlns="http://www.w3.org/2000/svg" xmlns:xlink="http://www.w3.org/1999/xlink" version="1.1" id="mdi-format-quote-open-outline" width="24" height="24" viewBox="0 0 24 24"><path d="M11 18V10H9.12L11.12 6H5.38L3 10.76V18M9 16H5V11.24L6.62 8H7.88L5.88 12H9M21 18V10H19.12L21.12 6H15.38L13 10.76V18M19 16H15V11.24L16.62 8H17.88L15.88 12H19Z" /></svg>
